;FLAVOR:Marlin
;TIME:897
;Filament used: 0.849819m
;Layer height: 0.2
;MINX:86.5
;MINY:102.45
;MINZ:0.3
;MAXX:124.933
;MAXY:122.65
;MAXZ:9.9
;Generated with Cura_SteamEngine 5.3.0
M82 ;absolute extrusion mode
; M190 S80
; M109 S240.0
start_print BED_TEMP=80 EXTRUDER_TEMP=240.0
G92 E0
G92 E0
G1 F480 E-0.5
;LAYER_COUNT:50
;LAYER:0
M107
G1 F600 Z1.3
G0 F3600 X88.032 Y103.29 Z1.3
;TYPE:SKIRT
G1 F600 Z0.3
G1 F480 E0
G1 F1200 X89.205 Y102.65 E0.06667
G1 X90.262 Y102.45 E0.12033
G1 X114.727 Y102.462 E1.3409
G1 X115.578 Y102.589 E1.38383
G1 X116.547 Y103.024 E1.43682
G1 X117.275 Y103.6 E1.48313
G1 X121.073 Y103.6 E1.67261
G1 X122.12 Y103.78 E1.72561
G1 X123.052 Y104.273 E1.77822
G1 X123.486 Y104.606 E1.80551
G1 X124.07 Y105.331 E1.85195
G1 X124.564 Y106.323 E1.90724
G1 X124.696 Y107.226 E1.95277
G1 X124.708 Y109.063 E2.04442
G1 X124.528 Y110.112 E2.09752
G1 X124.035 Y111.044 E2.15012
G1 X123.702 Y111.478 E2.17742
G1 X122.977 Y112.062 E2.22386
G1 X121.981 Y112.558 E2.27937
G1 X122.176 Y112.609 E2.28943
G1 X123.053 Y113.073 E2.33893
G1 X123.487 Y113.406 E2.36622
G1 X124.071 Y114.131 E2.41267
G1 X124.565 Y115.123 E2.46795
G1 X124.697 Y116.026 E2.51348
G1 X124.708 Y117.863 E2.60513
G1 X124.528 Y118.912 E2.65823
G1 X124.035 Y119.844 E2.71084
G1 X123.702 Y120.278 E2.73813
G1 X122.977 Y120.862 E2.78457
G1 X121.985 Y121.356 E2.83986
G1 X121.082 Y121.488 E2.88539
G1 X117.24 Y121.5 E3.07707
G1 X116.799 Y121.908 E3.10704
G1 X115.804 Y122.447 E3.1635
G1 X114.738 Y122.65 E3.21764
G1 X90.273 Y122.638 E4.4382
G1 X89.422 Y122.511 E4.48113
G1 X88.326 Y122.018 E4.54109
G1 X87.34 Y121.118 E4.60769
G1 X86.7 Y119.945 E4.67435
G1 X86.5 Y118.888 E4.72802
G1 X86.512 Y106.223 E5.35988
G1 X86.639 Y105.372 E5.40281
G1 X87.132 Y104.276 E5.46277
G1 X88.032 Y103.29 E5.52937
G0 F3600 X88.283 Y103.608
G1 F1200 X89.34 Y103.032 E5.58942
G1 X90.3 Y102.85 E5.63817
G1 X114.668 Y102.858 E6.8539
G1 X115.465 Y102.977 E6.8941
G1 X116.338 Y103.369 E6.94184
G1 X116.923 Y103.832 E6.97906
G1 X117.074 Y104 E6.99033
G1 X121.04 Y104 E7.1882
G1 X121.988 Y104.163 E7.23619
G1 X122.865 Y104.627 E7.28569
G1 X123.174 Y104.857 E7.30491
G1 X123.733 Y105.551 E7.34937
G1 X124.177 Y106.443 E7.39908
G1 X124.3 Y107.284 E7.44148
G1 X124.308 Y109.031 E7.52864
G1 X124.145 Y109.98 E7.57668
G1 X123.681 Y110.857 E7.62618
G1 X123.451 Y111.166 E7.6454
G1 X122.757 Y111.725 E7.68985
G1 X121.865 Y112.169 E7.73956
G1 X121.024 Y112.292 E7.78197
G1 X120.1 Y112.299 E7.82807
G1 X120.1 Y112.8 E7.85306
G1 X121.041 Y112.8 E7.90001
G1 X121.989 Y112.963 E7.948
G1 X122.866 Y113.427 E7.9975
G1 X123.175 Y113.657 E8.01672
G1 X123.734 Y114.351 E8.06118
G1 X124.178 Y115.243 E8.11089
G1 X124.301 Y116.084 E8.15329
G1 X124.308 Y117.831 E8.24045
G1 X124.145 Y118.78 E8.28849
G1 X123.681 Y119.657 E8.33799
G1 X123.451 Y119.966 E8.35721
G1 X122.757 Y120.525 E8.40167
G1 X121.865 Y120.969 E8.45138
G1 X121.024 Y121.092 E8.49378
G1 X117.077 Y121.1 E8.6907
G1 X116.608 Y121.556 E8.72333
G1 X115.667 Y122.066 E8.77673
G1 X114.7 Y122.25 E8.82584
G1 X90.332 Y122.242 E10.04157
G1 X89.535 Y122.123 E10.08177
G1 X88.548 Y121.679 E10.13576
G1 X87.658 Y120.867 E10.19587
G1 X87.082 Y119.81 E10.25592
G1 X86.9 Y118.85 E10.30467
G1 X86.908 Y106.282 E10.93169
G1 X87.027 Y105.485 E10.9719
G1 X87.471 Y104.498 E11.02589
G1 X88.283 Y103.608 E11.086
G0 F3600 X88.536 Y103.925
G1 F1200 X89.475 Y103.414 E11.13933
G1 X90.338 Y103.25 E11.18316
G1 X114.609 Y103.254 E12.39404
G1 X115.352 Y103.365 E12.43152
G1 X116.129 Y103.714 E12.47402
G1 X116.675 Y104.146 E12.50875
G1 X116.888 Y104.4 E12.52529
G1 X121.007 Y104.4 E12.73079
G1 X121.856 Y104.546 E12.77377
G1 X122.678 Y104.981 E12.82016
G1 X122.895 Y105.148 E12.83382
G1 X123.394 Y105.767 E12.87349
G1 X123.79 Y106.563 E12.91785
G1 X123.904 Y107.342 E12.95713
G1 X123.908 Y108.999 E13.03979
G1 X123.762 Y109.848 E13.08277
G1 X123.327 Y110.67 E13.12917
G1 X123.16 Y110.887 E13.14283
G1 X122.541 Y111.386 E13.1825
G1 X121.745 Y111.782 E13.22685
G1 X120.966 Y111.896 E13.26613
G1 X119.7 Y111.9 E13.32929
G1 X119.7 Y113.2 E13.39415
G1 X121.008 Y113.2 E13.45941
G1 X121.857 Y113.346 E13.50239
G1 X122.679 Y113.781 E13.54878
G1 X122.896 Y113.948 E13.56245
G1 X123.395 Y114.567 E13.60211
G1 X123.791 Y115.363 E13.64647
G1 X123.905 Y116.142 E13.68575
G1 X123.908 Y117.799 E13.76841
G1 X123.762 Y118.648 E13.81139
G1 X123.327 Y119.47 E13.85779
G1 X123.16 Y119.687 E13.87145
G1 X122.541 Y120.186 E13.91112
G1 X121.745 Y120.582 E13.95547
G1 X120.966 Y120.696 E13.99475
G1 X116.914 Y120.7 E14.19691
G1 X116.369 Y121.23 E14.23484
G1 X115.53 Y121.685 E14.28245
G1 X114.662 Y121.85 E14.32653
G1 X90.391 Y121.846 E15.53742
G1 X89.648 Y121.735 E15.5749
G1 X88.772 Y121.341 E15.62282
G1 X87.975 Y120.614 E15.67664
G1 X87.464 Y119.675 E15.72997
G1 X87.3 Y118.812 E15.7738
G1 X87.304 Y106.341 E16.39598
G1 X87.415 Y105.598 E16.43346
G1 X87.809 Y104.722 E16.48138
G1 X88.536 Y103.925 E16.5352
G0 F3600 X88.789 Y104.242
G1 F1200 X89.61 Y103.795 E16.58184
G1 X90.375 Y103.65 E16.62068
G1 X114.55 Y103.65 E17.82678
G1 X115.239 Y103.753 E17.86153
G1 X115.92 Y104.059 E17.89878
G1 X116.427 Y104.46 E17.93103
G1 X116.693 Y104.8 E17.95257
G1 X120.974 Y104.8 E18.16615
G1 X121.724 Y104.929 E18.20412
G1 X122.491 Y105.335 E18.24741
G1 X122.615 Y105.438 E18.25545
G1 X123.055 Y105.983 E18.2904
G1 X123.403 Y106.683 E18.3294
G1 X123.508 Y107.4 E18.36555
G1 X123.508 Y108.966 E18.44368
G1 X123.379 Y109.716 E18.48165
G1 X122.973 Y110.483 E18.52494
G1 X122.87 Y110.607 E18.53299
G1 X122.325 Y111.047 E18.56793
G1 X121.625 Y111.395 E18.60693
G1 X120.908 Y111.5 E18.64309
G1 X119.3 Y111.5 E18.72331
G1 X119.3 Y113.6 E18.82808
G1 X120.975 Y113.6 E18.91164
G1 X121.725 Y113.729 E18.94961
G1 X122.492 Y114.135 E18.99291
G1 X122.616 Y114.238 E19.00095
G1 X123.056 Y114.783 E19.0359
G1 X123.404 Y115.483 E19.0749
G1 X123.509 Y116.2 E19.11105
G1 X123.508 Y117.766 E19.18918
G1 X123.379 Y118.516 E19.22714
G1 X122.973 Y119.283 E19.27044
G1 X122.87 Y119.407 E19.27848
G1 X122.325 Y119.847 E19.31343
G1 X121.625 Y120.195 E19.35243
G1 X120.908 Y120.3 E19.38858
G1 X116.715 Y120.3 E19.59777
G1 X116.616 Y120.435 E19.60612
G1 X116.13 Y120.904 E19.63982
G1 X115.393 Y121.304 E19.68165
G1 X114.624 Y121.45 E19.72071
G1 X90.45 Y121.45 E20.92675
G1 X89.761 Y121.347 E20.96151
G1 X88.996 Y121.003 E21.00335
G1 X88.292 Y120.361 E21.05089
G1 X87.845 Y119.54 E21.09753
G1 X87.7 Y118.775 E21.13637
G1 X87.7 Y106.4 E21.75376
G1 X87.803 Y105.711 E21.78852
G1 X88.147 Y104.946 E21.83037
G1 X88.789 Y104.242 E21.8779
G0 F3600 X89.04 Y104.56
G1 F1200 X89.745 Y104.177 E21.91793
G1 X90.413 Y104.05 E21.95185
G1 X114.55 Y104.05 E23.15605
G1 X115.124 Y104.14 E23.18504
G1 X115.711 Y104.404 E23.21715
G1 X116.179 Y104.774 E23.24691
G1 X116.49 Y105.2 E23.27323
G1 X120.941 Y105.2 E23.49529
G1 X121.592 Y105.312 E23.52825
G1 X122.304 Y105.689 E23.56844
G1 X122.716 Y106.199 E23.60115
G1 X123.017 Y106.805 E23.63491
G1 X123.108 Y107.4 E23.66494
G1 X123.108 Y108.933 E23.74142
G1 X122.996 Y109.584 E23.77437
G1 X122.619 Y110.296 E23.81457
G1 X122.109 Y110.708 E23.84728
G1 X121.503 Y111.009 E23.88103
G1 X120.908 Y111.1 E23.91106
G1 X118.9 Y111.1 E24.01124
G1 X118.9 Y114 E24.15592
G1 X120.942 Y114 E24.2578
G1 X121.593 Y114.112 E24.29076
G1 X122.305 Y114.489 E24.33095
G1 X122.717 Y114.999 E24.36366
G1 X123.018 Y115.605 E24.39742
G1 X123.109 Y116.2 E24.42745
G1 X123.108 Y117.733 E24.50393
G1 X122.996 Y118.384 E24.53688
G1 X122.619 Y119.096 E24.57708
G1 X122.109 Y119.508 E24.60979
G1 X121.503 Y119.809 E24.64355
G1 X120.908 Y119.9 E24.67358
G1 X116.496 Y119.9 E24.89369
G1 X116.338 Y120.147 E24.90832
G1 X115.889 Y120.58 E24.93944
G1 X115.258 Y120.923 E24.97527
G1 X114.587 Y121.05 E25.00934
G1 X90.45 Y121.05 E26.21354
G1 X89.876 Y120.96 E26.24253
G1 X89.218 Y120.664 E26.27852
G1 X88.61 Y120.11 E26.31956
G1 X88.227 Y119.405 E26.35959
G1 X88.1 Y118.737 E26.39351
G1 X88.1 Y106.4 E27.00901
G1 X88.19 Y105.826 E27.03799
G1 X88.486 Y105.168 E27.07399
G1 X89.04 Y104.56 E27.11503
G0 F3600 X89.291 Y104.878
G1 F1200 X89.88 Y104.558 E27.14847
G1 X90.45 Y104.45 E27.17741
G1 X114.55 Y104.45 E28.37977
G1 X114.96 Y104.505 E28.40041
G1 X115.502 Y104.749 E28.43006
G1 X115.931 Y105.088 E28.45734
G1 X116.278 Y105.6 E28.4882
G1 X120.908 Y105.6 E28.71919
G1 X121.46 Y105.695 E28.74713
G1 X122.046 Y106.005 E28.78021
G1 X122.358 Y106.377 E28.80443
G1 X122.631 Y106.926 E28.83502
G1 X122.708 Y107.4 E28.85898
G1 X122.708 Y108.9 E28.93381
G1 X122.613 Y109.452 E28.96176
G1 X122.303 Y110.038 E28.99483
G1 X121.931 Y110.35 E29.01905
G1 X121.382 Y110.623 E29.04964
G1 X120.908 Y110.7 E29.0736
G1 X118.5 Y110.7 E29.19374
G1 X118.5 Y114.4 E29.37833
G1 X120.909 Y114.4 E29.49851
G1 X121.461 Y114.495 E29.52646
G1 X122.047 Y114.805 E29.55953
G1 X122.359 Y115.177 E29.58376
G1 X122.632 Y115.726 E29.61435
G1 X122.709 Y116.2 E29.6383
G1 X122.708 Y117.7 E29.71314
G1 X122.613 Y118.252 E29.74108
G1 X122.303 Y118.838 E29.77416
G1 X121.931 Y119.15 E29.79838
G1 X121.382 Y119.423 E29.82897
G1 X120.908 Y119.5 E29.85293
G1 X116.263 Y119.5 E30.08467
G1 X116.06 Y119.859 E30.10524
G1 X115.651 Y120.254 E30.13361
G1 X115.12 Y120.542 E30.16375
G1 X114.55 Y120.65 E30.19269
G1 X90.45 Y120.65 E31.39505
G1 X90.04 Y120.595 E31.41568
G1 X89.44 Y120.325 E31.44851
G1 X88.928 Y119.859 E31.48305
G1 X88.608 Y119.27 E31.51649
G1 X88.5 Y118.7 E31.54543
G1 X88.5 Y106.4 E32.15908
G1 X88.555 Y105.99 E32.17972
G1 X88.825 Y105.39 E32.21255
G1 X89.291 Y104.878 E32.24709
G0 F3600 X89.54 Y105.198
G1 F1200 X90.017 Y104.939 E32.27417
G1 X90.45 Y104.85 E32.29622
G1 X114.55 Y104.85 E33.49857
G1 X114.849 Y104.894 E33.51365
G1 X115.338 Y105.114 E33.5404
G1 X115.674 Y105.395 E33.56226
G1 X115.966 Y105.854 E33.5894
G1 X116.017 Y106 E33.59711
G1 X120.908 Y106 E33.84113
G1 X121.327 Y106.078 E33.86239
G1 X121.791 Y106.323 E33.88857
G1 X122 Y106.555 E33.90414
G1 X122.246 Y107.049 E33.93168
G1 X122.308 Y107.4 E33.94946
G1 X122.308 Y108.9 E34.0243
G1 X122.23 Y109.319 E34.04556
G1 X121.985 Y109.783 E34.07174
G1 X121.753 Y109.992 E34.08731
G1 X121.259 Y110.238 E34.11485
G1 X120.908 Y110.3 E34.13263
G1 X118.1 Y110.3 E34.27272
G1 X118.1 Y114.8 E34.49723
G1 X120.909 Y114.8 E34.63737
G1 X121.328 Y114.878 E34.65863
G1 X121.792 Y115.123 E34.68481
G1 X122.001 Y115.355 E34.70039
G1 X122.247 Y115.849 E34.72792
G1 X122.309 Y116.2 E34.7457
G1 X122.308 Y117.7 E34.82054
G1 X122.23 Y118.119 E34.8418
G1 X121.985 Y118.583 E34.86798
G1 X121.753 Y118.792 E34.88356
G1 X121.259 Y119.038 E34.91109
G1 X120.908 Y119.1 E34.92887
G1 X116.017 Y119.1 E35.17289
G1 X115.774 Y119.58 E35.19973
G1 X115.46 Y119.902 E35.22217
G1 X114.983 Y120.161 E35.24925
G1 X114.55 Y120.25 E35.2713
G1 X90.45 Y120.25 E36.47365
G1 X90.151 Y120.206 E36.48873
G1 X89.662 Y119.986 E36.51548
G1 X89.248 Y119.61 E36.54338
G1 X88.989 Y119.133 E36.57046
G1 X88.9 Y118.7 E36.59252
G1 X88.9 Y106.4 E37.20617
G1 X88.944 Y106.101 E37.22125
G1 X89.164 Y105.612 E37.248
G1 X89.54 Y105.198 E37.2759
G0 F3600 X89.743 Y105.543
G1 F1200 X90.107 Y105.329 E37.29696
G1 X90.45 Y105.25 E37.31453
G1 X114.55 Y105.25 E38.51688
G1 X114.783 Y105.289 E38.52867
G1 X115.163 Y105.474 E38.54975
G1 X115.407 Y105.693 E38.56611
G1 X115.621 Y106.057 E38.58717
G1 X115.678 Y106.4 E38.60452
G1 X120.908 Y106.4 E38.86545
G1 X121.246 Y106.47 E38.88267
G1 X121.509 Y106.607 E38.89746
G1 X121.648 Y106.745 E38.90723
G1 X121.854 Y107.127 E38.92889
G1 X121.908 Y107.4 E38.94277
G1 X121.908 Y108.9 E39.01761
G1 X121.838 Y109.238 E39.03483
G1 X121.701 Y109.501 E39.04962
G1 X121.563 Y109.64 E39.05939
G1 X121.181 Y109.846 E39.08105
G1 X120.908 Y109.9 E39.09493
G1 X117.7 Y109.9 E39.25498
G1 X117.7 Y115.2 E39.5194
G1 X120.909 Y115.2 E39.67949
G1 X121.247 Y115.27 E39.69671
G1 X121.51 Y115.407 E39.71151
G1 X121.649 Y115.545 E39.72128
G1 X121.855 Y115.927 E39.74293
G1 X121.909 Y116.2 E39.75682
G1 X121.908 Y117.7 E39.83165
G1 X121.838 Y118.038 E39.84887
G1 X121.701 Y118.301 E39.86367
G1 X121.563 Y118.44 E39.87344
G1 X121.181 Y118.646 E39.89509
G1 X120.908 Y118.7 E39.90898
G1 X115.678 Y118.7 E40.1699
G1 X115.621 Y119.043 E40.18725
G1 X115.476 Y119.313 E40.20254
G1 X115.257 Y119.557 E40.2189
G1 X114.893 Y119.771 E40.23996
G1 X114.55 Y119.85 E40.25752
G1 X90.45 Y119.85 E41.45988
G1 X90.217 Y119.811 E41.47166
G1 X89.837 Y119.626 E41.49275
G1 X89.593 Y119.407 E41.50911
G1 X89.379 Y119.043 E41.53017
G1 X89.3 Y118.7 E41.54773
G1 X89.3 Y106.4 E42.16138
G1 X89.339 Y106.167 E42.17317
G1 X89.524 Y105.787 E42.19425
G1 X89.743 Y105.543 E42.21061
G0 F3600 X90.026 Y105.826
G1 F1200 X90.296 Y105.681 E42.2259
G1 X90.45 Y105.65 E42.23374
G1 X114.55 Y105.65 E43.43609
G1 X114.704 Y105.681 E43.44393
G1 X114.974 Y105.826 E43.45922
G1 X115.124 Y105.976 E43.4698
G1 X115.269 Y106.246 E43.48509
G1 X115.3 Y106.8 E43.51277
G1 X120.908 Y106.8 E43.79256
G1 X121.152 Y106.859 E43.80508
G1 X121.304 Y106.95 E43.81392
G1 X121.465 Y107.22 E43.8296
G1 X121.508 Y107.4 E43.83884
G1 X121.508 Y108.9 E43.91367
G1 X121.449 Y109.144 E43.9262
G1 X121.358 Y109.296 E43.93504
G1 X121.088 Y109.457 E43.95072
G1 X120.908 Y109.5 E43.95995
G1 X117.3 Y109.5 E44.13996
G1 X117.3 Y115.6 E44.44429
G1 X120.909 Y115.6 E44.62434
G1 X121.153 Y115.659 E44.63686
G1 X121.305 Y115.75 E44.6457
G1 X121.466 Y116.02 E44.66139
G1 X121.509 Y116.2 E44.67062
G1 X121.508 Y117.7 E44.74545
G1 X121.449 Y117.944 E44.75798
G1 X121.358 Y118.096 E44.76682
G1 X121.088 Y118.257 E44.7825
G1 X120.908 Y118.3 E44.79173
G1 X115.3 Y118.3 E45.07152
G1 X115.269 Y118.854 E45.0992
G1 X115.124 Y119.124 E45.11449
G1 X114.974 Y119.274 E45.12507
G1 X114.704 Y119.419 E45.14036
G1 X114.55 Y119.45 E45.1482
G1 X90.45 Y119.45 E46.35055
G1 X90.296 Y119.419 E46.35839
G1 X90.026 Y119.274 E46.37368
G1 X89.876 Y119.124 E46.38426
G1 X89.731 Y118.854 E46.39955
G1 X89.7 Y118.7 E46.40739
G1 X89.7 Y106.4 E47.02104
G1 X89.731 Y106.246 E47.02888
G1 X89.876 Y105.976 E47.04417
G1 X90.026 Y105.826 E47.05475
G0 F3600 X90.309 Y106.109
G1 F1200 X90.159 Y106.259 E47.06533
G1 X90.1 Y106.4 E47.07296
G1 X90.1 Y118.7 E47.68661
G1 X90.159 Y118.841 E47.69423
G1 X90.309 Y118.991 E47.70482
G1 X90.45 Y119.05 E47.71244
G1 X114.55 Y119.05 E48.9148
G1 X114.691 Y118.991 E48.92242
G1 X114.841 Y118.841 E48.93301
G1 X114.9 Y118.7 E48.94063
G1 X114.9 Y117.9 E48.98054
G1 X120.908 Y117.9 E49.28028
G1 X121.069 Y117.819 E49.28928
G1 X121.108 Y117.7 E49.29552
G1 X121.109 Y116.2 E49.37036
G1 X121.028 Y116.039 E49.37935
G1 X120.909 Y116 E49.3856
G1 X116.9 Y116 E49.58561
G1 X116.9 Y109.1 E49.92985
G1 X120.908 Y109.1 E50.12981
G1 X121.069 Y109.019 E50.1388
G1 X121.108 Y108.9 E50.14505
G1 X121.108 Y107.4 E50.21988
G1 X121.027 Y107.239 E50.22888
G1 X120.908 Y107.2 E50.23512
G1 X114.9 Y107.2 E50.53486
G1 X114.9 Y106.4 E50.57478
G1 X114.841 Y106.259 E50.5824
G1 X114.691 Y106.109 E50.59299
G1 X114.55 Y106.05 E50.60061
G1 X90.45 Y106.05 E51.80296
G1 X90.309 Y106.109 E51.81059
G1 F480 E51.31059
G1 F600 Z1.3
G0 F3600 X111.184 Y109.946 Z1.3
G1 F600 Z0.3
G1 F480 E51.81059
G1 F1200 X111.218 Y109.895 E51.81365
G1 X111.254 Y109.866 E51.81595
G1 X111.32 Y109.832 E51.81966
G1 X111.374 Y109.816 E51.82247
G1 X111.532 Y109.816 E51.83035
G1 X111.578 Y109.829 E51.83274
G1 X111.641 Y109.863 E51.83631
G1 X111.701 Y109.915 E51.84027
G1 X111.747 Y109.975 E51.84404
G1 X111.774 Y110.034 E51.84728
G1 X111.784 Y110.08 E51.84963
G1 X111.784 Y110.306 E51.8609
G1 X111.467 Y110.087 E51.88012
G1 X111.441 Y110.072 E51.88162
G1 X111.184 Y109.946 E51.8959
G0 F3600 X111.1 Y110.832
G1 F1200 X111.238 Y110.883 E51.90324
G1 X111.496 Y111.05 E51.91857
G1 X111.8 Y111.348 E51.93981
G1 X111.8 Y111.736 E51.95917
G1 X111.437 Y112.058 E51.98338
G1 X111.1 Y111.754 E52.00602
G1 X111.1 Y110.832 E52.05202
G1 F480 E51.55202
G0 F3600 X111.438 Y113.209
G1 F480 E52.05202
G1 F1200 X111.8 Y113.531 E52.07619
G1 X111.8 Y113.94 E52.0966
G1 X111.784 Y113.972 E52.09838
G1 X111.784 Y114.66 E52.13271
G1 X111.618 Y114.52 E52.14354
G1 X111.581 Y114.496 E52.14574
G1 X111.141 Y114.267 E52.17049
G1 X111.1 Y114.251 E52.17268
G1 X111.1 Y113.513 E52.2095
G1 X111.438 Y113.209 E52.23218
G1 F480 E51.73218
;MESH:end_male.stl
G0 F3600 X111.668 Y115.49
G0 X112.081 Y116.531
G0 X111.695 Y116.431
;TYPE:WALL-OUTER
G1 F480 E52.23218
