;FLAVOR:Marlin
;TIME:1452
;Filament used: 1.46268m
;Layer height: 0.2
;MINX:89.6
;MINY:88.087
;MINZ:0.3
;MAXX:125.5
;MAXY:135.763
;MAXZ:13.9
;Generated with Cura_SteamEngine 5.3.0
M82 ;absolute extrusion mode
; M190 S80
; M109 S240.0
start_print BED_TEMP=80 EXTRUDER_TEMP=240.0
G92 E0
G92 E0
G1 F480 E-0.5
;LAYER_COUNT:69
;LAYER:0
M107
G1 F600 Z1.3
G0 F3600 X90.606 Y89.309 Z1.3
;TYPE:SKIRT
G1 F600 Z0.3
G1 F480 E0
G1 F1200 X91.331 Y88.725 E0.04645
G1 X92.323 Y88.231 E0.10173
G1 X93.226 Y88.099 E0.14726
G1 X96.664 Y88.087 E0.31879
G1 X97.712 Y88.267 E0.37184
G1 X98.644 Y88.76 E0.42444
G1 X99.078 Y89.093 E0.45173
G1 X99.662 Y89.818 E0.49818
G1 X100.156 Y90.81 E0.55347
G1 X100.288 Y91.713 E0.59899
G1 X100.301 Y96.087 E0.81722
G1 X101.201 Y96.087 E0.86212
G1 X102.457 Y96.386 E0.92653
G1 X103.387 Y97.014 E0.98252
G1 X103.64 Y97.281 E1.00087
G1 X103.832 Y97.213 E1.01103
G1 X104.611 Y97.099 E1.05031
G1 X111.258 Y97.087 E1.38193
G1 X112.256 Y97.258 E1.43244
G1 X112.394 Y97.109 E1.44258
G1 X112.956 Y96.676 E1.47797
G1 X113.795 Y96.255 E1.5248
G1 X114.7 Y96.097 E1.57064
G1 X114.7 Y91.722 E1.78891
G1 X114.88 Y90.675 E1.84191
G1 X115.373 Y89.743 E1.89451
G1 X115.706 Y89.309 E1.9218
G1 X116.431 Y88.725 E1.96825
G1 X117.423 Y88.231 E2.02354
G1 X118.326 Y88.099 E2.06906
G1 X121.864 Y88.087 E2.24558
G1 X122.912 Y88.267 E2.29863
G1 X123.844 Y88.76 E2.35123
G1 X124.278 Y89.093 E2.37852
G1 X124.862 Y89.818 E2.42497
G1 X125.356 Y90.81 E2.48026
G1 X125.488 Y91.713 E2.52578
G1 X125.5 Y128.278 E4.35002
G1 X125.32 Y129.323 E4.40292
G1 X124.792 Y130.324 E4.45938
G1 X124.565 Y130.63 E4.47839
G1 X123.808 Y131.253 E4.52731
G1 X122.985 Y131.683 E4.57363
G1 X122.716 Y131.756 E4.58754
G1 X122.584 Y132.524 E4.62642
G1 X122.091 Y133.456 E4.67902
G1 X121.758 Y133.89 E4.70631
G1 X121.033 Y134.474 E4.75275
G1 X120.041 Y134.968 E4.80804
G1 X119.138 Y135.1 E4.85357
G1 X114.929 Y135.112 E5.06356
G1 X114.01 Y134.954 E5.11008
G1 X113.599 Y134.773 E5.13249
G1 X113.166 Y135.122 E5.16023
G1 X112.265 Y135.577 E5.21059
G1 X111.299 Y135.762 E5.25966
G1 X104.62 Y135.763 E5.59288
G1 X103.573 Y135.583 E5.64588
G1 X102.641 Y135.09 E5.69848
G1 X102.24 Y134.78 E5.72377
G1 X101.8 Y134.977 E5.74782
G1 X100.959 Y135.1 E5.79022
G1 X96.751 Y135.112 E6.00016
G1 X95.704 Y134.932 E6.05316
G1 X94.772 Y134.439 E6.10577
G1 X94.338 Y134.106 E6.13306
G1 X93.754 Y133.381 E6.1795
G1 X93.26 Y132.389 E6.23479
G1 X93.128 Y131.486 E6.28032
G1 X93.116 Y113.681 E7.16862
G1 X92.188 Y113.521 E7.2156
G1 X91.256 Y113.028 E7.2682
G1 X90.822 Y112.695 E7.29549
G1 X90.238 Y111.97 E7.34194
G1 X89.744 Y110.978 E7.39723
G1 X89.612 Y110.075 E7.44276
G1 X89.6 Y91.722 E8.35839
G1 X89.78 Y90.675 E8.41139
G1 X90.273 Y89.743 E8.46399
G1 X90.606 Y89.309 E8.49129
G0 F3600 X90.857 Y89.621
G1 F1200 X91.551 Y89.062 E8.53574
G1 X92.443 Y88.618 E8.58545
G1 X93.284 Y88.495 E8.62786
G1 X96.632 Y88.487 E8.79489
G1 X97.58 Y88.65 E8.84288
G1 X98.457 Y89.114 E8.89238
G1 X98.766 Y89.344 E8.9116
G1 X99.325 Y90.038 E8.95606
G1 X99.769 Y90.93 E9.00577
G1 X99.892 Y91.771 E9.04817
G1 X99.902 Y96.487 E9.28346
G1 X101.154 Y96.487 E9.34592
G1 X102.292 Y96.758 E9.40428
G1 X103.163 Y97.346 E9.45671
G1 X103.534 Y97.764 E9.48459
G1 X103.89 Y97.609 E9.50396
G1 X104.669 Y97.495 E9.54324
G1 X111.225 Y97.487 E9.87032
G1 X112.047 Y97.628 E9.91193
G1 X112.353 Y97.76 E9.92856
G1 X112.638 Y97.426 E9.95046
G1 X113.169 Y97.017 E9.9839
G1 X113.923 Y96.639 E10.02598
G1 X114.782 Y96.489 E10.06949
G1 X115.1 Y96.483 E10.08535
G1 X115.1 Y91.755 E10.32124
G1 X115.263 Y90.807 E10.36923
G1 X115.727 Y89.93 E10.41873
G1 X115.957 Y89.621 E10.43794
G1 X116.651 Y89.062 E10.4824
G1 X117.543 Y88.618 E10.53211
G1 X118.384 Y88.495 E10.57452
G1 X121.832 Y88.487 E10.74654
G1 X122.78 Y88.65 E10.79453
G1 X123.657 Y89.114 E10.84403
G1 X123.966 Y89.344 E10.86325
G1 X124.525 Y90.038 E10.9077
G1 X124.969 Y90.93 E10.95742
G1 X125.092 Y91.771 E10.99982
G1 X125.1 Y128.245 E12.81951
G1 X124.937 Y129.191 E12.86741
G1 X124.438 Y130.137 E12.92077
G1 X124.273 Y130.352 E12.93429
G1 X123.587 Y130.917 E12.97863
G1 X122.8 Y131.328 E13.02292
G1 X122.368 Y131.423 E13.04499
G1 X122.201 Y132.392 E13.09404
G1 X121.737 Y133.269 E13.14354
G1 X121.507 Y133.578 E13.16276
G1 X120.813 Y134.137 E13.20722
G1 X119.921 Y134.581 E13.25693
G1 X119.08 Y134.704 E13.29934
G1 X114.962 Y134.712 E13.50478
G1 X114.078 Y134.56 E13.54953
G1 X113.546 Y134.302 E13.57903
G1 X112.949 Y134.784 E13.61731
G1 X112.136 Y135.194 E13.66274
G1 X111.26 Y135.362 E13.70724
G1 X104.653 Y135.363 E14.03686
G1 X103.705 Y135.2 E14.08485
G1 X102.828 Y134.736 E14.13435
G1 X102.554 Y134.532 E14.1514
G1 X102.34 Y134.284 E14.16774
G1 X101.742 Y134.581 E14.20105
G1 X100.901 Y134.704 E14.24345
G1 X96.784 Y134.712 E14.44885
G1 X95.836 Y134.549 E14.49684
G1 X94.959 Y134.085 E14.54634
G1 X94.65 Y133.855 E14.56556
G1 X94.091 Y133.161 E14.61002
G1 X93.647 Y132.269 E14.65973
G1 X93.524 Y131.428 E14.70213
G1 X93.516 Y113.301 E15.60649
G1 X93.233 Y113.295 E15.62062
G1 X92.32 Y113.138 E15.66683
G1 X91.443 Y112.674 E15.71633
G1 X91.134 Y112.444 E15.73555
G1 X90.575 Y111.75 E15.78001
G1 X90.131 Y110.858 E15.82972
G1 X90.008 Y110.017 E15.87212
G1 X90 Y91.755 E16.78322
G1 X90.163 Y90.807 E16.83121
G1 X90.627 Y89.93 E16.88071
G1 X90.857 Y89.621 E16.89993
G0 F3600 X91.148 Y89.9
G1 F1200 X91.767 Y89.401 E16.93959
G1 X92.563 Y89.005 E16.98395
G1 X93.342 Y88.891 E17.02323
G1 X96.599 Y88.887 E17.18572
G1 X97.448 Y89.033 E17.2287
G1 X98.27 Y89.468 E17.2751
G1 X98.487 Y89.635 E17.28876
G1 X98.986 Y90.254 E17.32843
G1 X99.382 Y91.05 E17.37278
G1 X99.496 Y91.829 E17.41206
G1 X99.503 Y96.887 E17.6644
G1 X101.107 Y96.887 E17.74443
G1 X102.129 Y97.13 E17.79684
G1 X102.939 Y97.677 E17.8456
G1 X103.431 Y98.262 E17.88374
G1 X103.948 Y98.005 E17.91254
G1 X104.727 Y97.891 E17.95182
G1 X111.192 Y97.887 E18.27436
G1 X111.979 Y98.022 E18.3142
G1 X112.463 Y98.259 E18.34108
G1 X112.882 Y97.743 E18.37424
G1 X113.384 Y97.357 E18.40584
G1 X114.049 Y97.023 E18.44296
G1 X114.851 Y96.883 E18.48358
G1 X115.5 Y96.882 E18.51596
G1 X115.5 Y91.788 E18.7701
G1 X115.646 Y90.939 E18.81308
G1 X116.081 Y90.117 E18.85948
G1 X116.248 Y89.9 E18.87314
G1 X116.867 Y89.401 E18.9128
G1 X117.663 Y89.005 E18.95716
G1 X118.442 Y88.891 E18.99644
G1 X121.799 Y88.887 E19.16392
G1 X122.648 Y89.033 E19.2069
G1 X123.47 Y89.468 E19.2533
G1 X123.687 Y89.635 E19.26696
G1 X124.186 Y90.254 E19.30662
G1 X124.582 Y91.05 E19.35098
G1 X124.696 Y91.829 E19.39026
G1 X124.7 Y128.212 E21.20541
G1 X124.554 Y129.059 E21.24829
G1 X124.084 Y129.95 E21.29855
G1 X123.984 Y130.072 E21.30642
G1 X123.366 Y130.581 E21.34636
G1 X122.615 Y130.973 E21.38863
G1 X121.964 Y131.089 E21.42162
G1 X121.958 Y131.446 E21.43943
G1 X121.818 Y132.26 E21.48064
G1 X121.383 Y133.082 E21.52704
G1 X121.216 Y133.299 E21.5407
G1 X120.597 Y133.798 E21.58037
G1 X119.801 Y134.194 E21.62472
G1 X119.022 Y134.308 E21.664
G1 X114.995 Y134.312 E21.86491
G1 X114.146 Y134.166 E21.90789
G1 X113.448 Y133.797 E21.94728
G1 X113.309 Y133.98 E21.95874
G1 X112.732 Y134.446 E21.99574
G1 X112.007 Y134.811 E22.03624
G1 X111.221 Y134.962 E22.07617
G1 X104.686 Y134.963 E22.4022
G1 X103.837 Y134.817 E22.44518
G1 X103.015 Y134.382 E22.49158
G1 X102.798 Y134.215 E22.50524
G1 X102.449 Y133.783 E22.53295
G1 X101.622 Y134.194 E22.57902
G1 X100.843 Y134.308 E22.6183
G1 X96.817 Y134.312 E22.81916
G1 X95.968 Y134.166 E22.86214
G1 X95.146 Y133.731 E22.90853
G1 X94.929 Y133.564 E22.92219
G1 X94.43 Y132.945 E22.96186
G1 X94.034 Y132.149 E23.00622
G1 X93.92 Y131.37 E23.0455
G1 X93.916 Y112.9 E23.96697
G1 X93.301 Y112.901 E23.99765
G1 X92.452 Y112.755 E24.04063
G1 X91.63 Y112.32 E24.08703
G1 X91.413 Y112.153 E24.10069
G1 X90.914 Y111.534 E24.14035
G1 X90.518 Y110.738 E24.18471
G1 X90.404 Y109.959 E24.22399
G1 X90.4 Y91.788 E25.13054
G1 X90.546 Y90.939 E25.17352
G1 X90.981 Y90.117 E25.21992
G1 X91.148 Y89.9 E25.23358
G0 F3600 X91.438 Y90.18
G1 F1200 X91.983 Y89.74 E25.26853
G1 X92.683 Y89.392 E25.30753
G1 X93.4 Y89.287 E25.34368
G1 X96.566 Y89.287 E25.50163
G1 X97.316 Y89.416 E25.5396
G1 X98.083 Y89.822 E25.5829
G1 X98.207 Y89.925 E25.59094
G1 X98.647 Y90.47 E25.62588
G1 X98.995 Y91.17 E25.66488
G1 X99.1 Y91.887 E25.70104
G1 X99.103 Y97.287 E25.97044
G1 X101.06 Y97.287 E26.06808
G1 X101.964 Y97.502 E26.11444
G1 X102.669 Y97.978 E26.15688
G1 X103.073 Y98.458 E26.18818
G1 X103.269 Y98.82 E26.20872
G1 X103.406 Y98.721 E26.21715
G1 X104.068 Y98.392 E26.25403
G1 X104.785 Y98.287 E26.29018
G1 X111.159 Y98.287 E26.60818
G1 X111.911 Y98.416 E26.64625
G1 X112.63 Y98.803 E26.68698
G1 X112.758 Y98.529 E26.70207
G1 X113.161 Y98.033 E26.73396
G1 X113.597 Y97.698 E26.76139
G1 X114.177 Y97.407 E26.79376
G1 X114.886 Y97.283 E26.82967
G1 X115.9 Y97.282 E26.88026
G1 X115.9 Y91.821 E27.15271
G1 X116.029 Y91.071 E27.19068
G1 X116.435 Y90.304 E27.23397
G1 X116.538 Y90.18 E27.24202
G1 X117.083 Y89.74 E27.27696
G1 X117.783 Y89.392 E27.31596
G1 X118.5 Y89.287 E27.35211
G1 X121.766 Y89.287 E27.51506
G1 X122.516 Y89.416 E27.55302
G1 X123.283 Y89.822 E27.59632
G1 X123.407 Y89.925 E27.60436
G1 X123.847 Y90.47 E27.63931
G1 X124.195 Y91.17 E27.67831
G1 X124.3 Y91.887 E27.71446
G1 X124.3 Y128.179 E29.52508
G1 X124.171 Y128.927 E29.56294
G1 X123.73 Y129.763 E29.6101
G1 X123.145 Y130.245 E29.64792
G1 X122.484 Y130.59 E29.68512
G1 X121.791 Y130.713 E29.72023
G1 X121.564 Y130.721 E29.73156
G1 X121.564 Y131.378 E29.76434
G1 X121.435 Y132.128 E29.80231
G1 X121.029 Y132.895 E29.8456
G1 X120.926 Y133.019 E29.85364
G1 X120.381 Y133.459 E29.88859
G1 X119.681 Y133.807 E29.92759
G1 X118.964 Y133.912 E29.96374
G1 X115.028 Y133.912 E30.16011
G1 X114.278 Y133.783 E30.19808
G1 X113.582 Y133.415 E30.23736
G1 X113.346 Y133.193 E30.25352
G1 X113.058 Y133.669 E30.28128
G1 X112.515 Y134.108 E30.31611
G1 X111.878 Y134.428 E30.35168
G1 X111.181 Y134.562 E30.38709
G1 X104.719 Y134.563 E30.70948
G1 X103.969 Y134.434 E30.74745
G1 X103.202 Y134.028 E30.79074
G1 X103.078 Y133.925 E30.79879
G1 X102.666 Y133.415 E30.83149
G1 X102.541 Y133.185 E30.84455
G1 X102.164 Y133.478 E30.86838
G1 X101.502 Y133.807 E30.90526
G1 X100.785 Y133.912 E30.94141
G1 X96.85 Y133.912 E31.13773
G1 X96.1 Y133.783 E31.17569
G1 X95.333 Y133.377 E31.21899
G1 X95.209 Y133.274 E31.22703
G1 X94.769 Y132.729 E31.26198
G1 X94.421 Y132.029 E31.30098
G1 X94.316 Y131.312 E31.33713
G1 X94.316 Y112.5 E32.27567
G1 X93.334 Y112.501 E32.32466
G1 X92.584 Y112.372 E32.36263
G1 X91.817 Y111.966 E32.40592
G1 X91.693 Y111.863 E32.41396
G1 X91.253 Y111.318 E32.44891
G1 X90.905 Y110.618 E32.48791
G1 X90.8 Y109.901 E32.52406
G1 X90.8 Y91.821 E33.42608
G1 X90.929 Y91.071 E33.46405
G1 X91.335 Y90.304 E33.50734
G1 X91.438 Y90.18 E33.51538
G0 F3600 X91.689 Y90.491
G1 F1200 X92.199 Y90.079 E33.54809
G1 X92.805 Y89.778 E33.58185
G1 X93.4 Y89.687 E33.61188
G1 X96.533 Y89.687 E33.76819
G1 X97.184 Y89.799 E33.80114
G1 X97.896 Y90.176 E33.84134
G1 X98.308 Y90.686 E33.87405
G1 X98.609 Y91.292 E33.9078
G1 X98.7 Y91.887 E33.93783
G1 X98.703 Y97.233 E34.20455
G1 X98.744 Y97.639 E34.2249
G1 X99.148 Y97.687 E34.2452
G1 X101.013 Y97.687 E34.33825
G1 X101.799 Y97.874 E34.37855
G1 X102.399 Y98.279 E34.41467
G1 X102.74 Y98.684 E34.44108
G1 X102.938 Y99.049 E34.4618
G1 X103.061 Y99.501 E34.48517
G1 X103.584 Y99.079 E34.5187
G1 X104.19 Y98.778 E34.55246
G1 X104.785 Y98.687 E34.58249
G1 X111.126 Y98.687 E34.89884
G1 X111.777 Y98.799 E34.9318
G1 X112.418 Y99.138 E34.96797
G1 X112.816 Y99.568 E34.9972
G1 X112.849 Y99.345 E35.00845
G1 X113.068 Y98.781 E35.03864
G1 X113.44 Y98.323 E35.06807
G1 X113.776 Y98.056 E35.08948
G1 X114.305 Y97.791 E35.119
G1 X114.921 Y97.683 E35.1502
G1 X116.123 Y97.682 E35.21017
G1 X116.268 Y97.643 E35.21766
G1 X116.3 Y97.308 E35.23445
G1 X116.3 Y91.854 E35.50655
G1 X116.412 Y91.203 E35.53951
G1 X116.789 Y90.491 E35.5797
G1 X117.299 Y90.079 E35.61241
G1 X117.905 Y89.778 E35.64617
G1 X118.5 Y89.687 E35.6762
G1 X121.733 Y89.687 E35.83749
G1 X122.384 Y89.799 E35.87045
G1 X123.096 Y90.176 E35.91064
G1 X123.508 Y90.686 E35.94335
G1 X123.809 Y91.292 E35.97711
G1 X123.9 Y91.887 E36.00714
G1 X123.9 Y128.146 E37.81611
G1 X123.788 Y128.795 E37.84897
G1 X123.413 Y129.506 E37.88907
G1 X122.924 Y129.909 E37.92068
G1 X122.351 Y130.208 E37.95293
G1 X121.777 Y130.313 E37.98204
G1 X121.202 Y130.333 E38.01075
G1 X121.164 Y130.562 E38.02233
G1 X121.164 Y131.345 E38.06139
G1 X121.052 Y131.996 E38.09435
G1 X120.675 Y132.708 E38.13454
G1 X120.165 Y133.12 E38.16725
G1 X119.559 Y133.421 E38.20101
G1 X118.964 Y133.512 E38.23104
G1 X115.061 Y133.512 E38.42576
G1 X114.41 Y133.4 E38.45871
G1 X113.769 Y133.061 E38.49489
G1 X113.338 Y132.592 E38.52667
G1 X113.226 Y132.392 E38.5381
G1 X113.153 Y132.701 E38.55394
G1 X112.806 Y133.358 E38.59101
G1 X112.297 Y133.77 E38.62368
G1 X111.748 Y134.045 E38.65432
G1 X111.141 Y134.162 E38.68516
G1 X104.752 Y134.163 E39.00391
G1 X104.101 Y134.051 E39.03686
G1 X103.389 Y133.674 E39.07706
G1 X102.977 Y133.164 E39.10977
G1 X102.704 Y132.615 E39.14036
G1 X102.653 Y132.413 E39.15075
G1 X102.437 Y132.756 E39.17097
G1 X101.986 Y133.12 E39.19989
G1 X101.38 Y133.421 E39.23364
G1 X100.785 Y133.512 E39.26367
G1 X96.883 Y133.512 E39.45835
G1 X96.232 Y133.4 E39.4913
G1 X95.52 Y133.023 E39.5315
G1 X95.108 Y132.513 E39.5642
G1 X94.807 Y131.907 E39.59796
G1 X94.716 Y131.312 E39.62799
G1 X94.716 Y112.46 E40.56852
G1 X94.683 Y112.139 E40.58462
G1 X94.589 Y112.1 E40.5897
G1 X93.367 Y112.101 E40.65066
G1 X92.716 Y111.989 E40.68362
G1 X92.004 Y111.612 E40.72381
G1 X91.592 Y111.102 E40.75652
G1 X91.291 Y110.496 E40.79028
G1 X91.2 Y109.901 E40.82031
G1 X91.2 Y91.854 E41.72068
G1 X91.312 Y91.203 E41.75364
G1 X91.689 Y90.491 E41.79383
G0 F3600 X92.005 Y90.749
G1 F1200 X91.695 Y91.335 E41.8269
G1 X91.6 Y91.887 E41.85485
G1 X91.6 Y109.901 E42.75357
G1 X91.677 Y110.375 E42.77753
G1 X91.95 Y110.924 E42.80812
G1 X92.262 Y111.296 E42.83234
G1 X92.848 Y111.606 E42.86541
G1 X93.4 Y111.701 E42.89336
G1 X94.667 Y111.7 E42.95657
G1 X94.985 Y111.832 E42.97375
G1 X95.069 Y111.98 E42.98224
G1 X95.116 Y112.438 E43.00521
G1 X95.116 Y131.312 E43.94683
G1 X95.193 Y131.786 E43.97079
G1 X95.466 Y132.335 E44.00138
G1 X95.778 Y132.707 E44.0256
G1 X96.364 Y133.017 E44.05868
G1 X96.916 Y133.112 E44.08662
G1 X100.785 Y133.112 E44.27965
G1 X101.259 Y133.035 E44.30361
G1 X101.808 Y132.762 E44.3342
G1 X102.18 Y132.45 E44.35842
G1 X102.49 Y131.864 E44.39149
G1 X102.585 Y131.312 E44.41944
G1 X102.585 Y100.729 E45.94523
G1 X102.731 Y99.836 E45.99037
G1 X102.586 Y99.24 E46.02097
G1 X102.388 Y98.875 E46.04169
G1 X102.129 Y98.58 E46.06128
G1 X101.634 Y98.246 E46.09107
G1 X100.966 Y98.087 E46.12533
G1 X99.126 Y98.087 E46.21712
G1 X98.613 Y98.026 E46.2429
G1 X98.404 Y97.906 E46.25492
G1 X98.336 Y97.665 E46.26741
G1 X98.303 Y97.253 E46.28803
G1 X98.3 Y91.887 E46.55575
G1 X98.223 Y91.413 E46.5797
G1 X97.95 Y90.864 E46.61029
G1 X97.638 Y90.492 E46.63452
G1 X97.052 Y90.182 E46.66759
G1 X96.5 Y90.087 E46.69553
G1 X93.4 Y90.087 E46.85019
G1 X92.926 Y90.164 E46.87415
G1 X92.377 Y90.437 E46.90474
G1 X92.005 Y90.749 E46.92896
G0 F3600 X92.323 Y91.004
G1 F1200 X92.555 Y90.795 E46.94454
G1 X93.049 Y90.549 E46.97207
G1 X93.4 Y90.487 E46.98986
G1 X96.5 Y90.487 E47.14452
G1 X96.919 Y90.565 E47.16578
G1 X97.383 Y90.81 E47.19196
G1 X97.592 Y91.042 E47.20754
G1 X97.838 Y91.536 E47.23507
G1 X97.9 Y91.887 E47.25285
G1 X97.903 Y97.273 E47.52156
G1 X97.94 Y97.736 E47.54473
G1 X98.045 Y98.105 E47.56387
G1 X98.202 Y98.278 E47.57553
G1 X98.501 Y98.415 E47.59194
G1 X99.103 Y98.487 E47.62218
G1 X100.919 Y98.487 E47.71279
G1 X101.469 Y98.618 E47.74099
G1 X101.905 Y98.912 E47.76723
G1 X102.075 Y99.125 E47.78082
G1 X102.231 Y99.425 E47.79769
G1 X102.323 Y99.851 E47.81944
G1 X102.185 Y100.696 E47.86215
G1 X102.185 Y131.312 E49.38959
G1 X102.107 Y131.731 E49.41085
G1 X101.862 Y132.195 E49.43703
G1 X101.63 Y132.404 E49.45261
G1 X101.136 Y132.65 E49.48014
G1 X100.785 Y132.712 E49.49793
G1 X96.916 Y132.712 E49.69095
G1 X96.497 Y132.634 E49.71221
G1 X96.033 Y132.389 E49.73839
G1 X95.824 Y132.157 E49.75397
G1 X95.578 Y131.663 E49.7815
G1 X95.516 Y131.312 E49.79929
G1 X95.516 Y112.416 E50.74201
G1 X95.458 Y111.856 E50.7701
